X: 5
T: The Congress
R: reel
M: 4/4
L: 1/8
K: Ador
|:d|eAA ABd|eaf ged|eAA eAA|BAG ABd|eAA ABd|eaf ged|c2d e/f/gd|BAG A2:||:d|eaa aga|eag egd|e/f/gd egd|eaf ged|eaa aga|eaf ged|c2d e/f/gd|BAG A2:|


Tune 208	Setting 12878

